public/sheesh/icons20.svg

<svg fill="none" height="60" viewBox="0 0 61 60" width="61" xmlns="http://www.w3.org/2000/svg" xmlns:xlink="http://www.w3.org/1999/xlink"><linearGradient id="a"><stop offset="0" stop-color="#34c796"/><stop offset="1" stop-color="#0b7a55"/></linearGradient><linearGradient id="b" gradientUnits="userSpaceOnUse" x1="30.5" x2="30.5" xlink:href="#a" y1="0" y2="60"/><linearGradient id="c" gradientUnits="userSpaceOnUse" x1="30.4739" x2="30.4739" xlink:href="#a" y1="16.666" y2="43.3325"/><circle cx="30.5" cy="30" fill="#151722" r="29" stroke="url(#b)" stroke-width="2"/><path clip-rule="evenodd" d="m20.167 22.9993c0-3.4933 2.84-6.3333 6.3333-6.3333 3.4934 0 6.3334 2.84 6.3334 6.3333-.0134 3.4267-2.6934 6.2-6.1067 6.32h-.0267-.0666c-.08-.0133-.1867-.0133-.2934 0-3.4933-.12-6.1733-2.8933-6.1733-6.32zm-.4271 9.8666c3.7467-2.48 9.8134-2.48 13.5334 0 1.68 1.12 2.6 2.64 2.6133 4.28 0 1.6533-.9333 3.1733-2.6133 4.3066-1.8667 1.2534-4.32 1.88-6.7734 1.88-2.4533 0-4.9066-.6266-6.7733-1.88-1.68-1.12-2.6133-2.64-2.6133-4.28s.9333-3.1733 2.6266-4.3066zm21.4136-9.0798c.2133 2.5867-1.6267 4.8534-4.1734 5.16h-.0266-.04c-.08 0-.16 0-.2267.0267-1.2933.0667-2.48-.3467-3.3733-1.1067 1.3733-1.2266 2.16-3.0666 2-5.0666-.0934-1.08-.4667-2.0667-1.0267-2.9067.5067-.2533 1.0933-.4133 1.6933-.4667 2.6134-.2266 4.9467 1.72 5.1734 4.36zm.3465 15.5071c1.3867-.76 2.2133-1.88 2.32-3.1733.12-1.28-.5067-2.52-1.7333-3.5067-2.28-1.84-5.9867-2.4133-8.9334-1.56 1.1334.4133 2.1734.9733 3.0667 1.68 1.5733 1.2667 2.36 2.8533 2.2267 4.5067-.1067 1.1466-.6667 2.2266-1.6267 3.0933 1.6667.04 3.3467-.3067 4.68-1.04z" fill="url(#c)" fill-rule="evenodd"/></svg>

<svg width="61" height="60" viewBox="0 0 61 60" fill="none" xmlns="http://www.w3.org/2000/svg">
<circle cx="30.5" cy="30" r="29" fill="#151722" stroke="url(#paint0_linear_415_6283)" stroke-width="2"/>
<path fill-rule="evenodd" clip-rule="evenodd" d="M20.167 22.9993C20.167 19.506 23.007 16.666 26.5003 16.666C29.9937 16.666 32.8337 19.506 32.8337 22.9993C32.8203 26.426 30.1403 29.1993 26.727 29.3193H26.7003H26.6337C26.5537 29.306 26.447 29.306 26.3403 29.3193C22.847 29.1993 20.167 26.426 20.167 22.9993ZM19.7399 32.8659C23.4866 30.3859 29.5533 30.3859 33.2733 32.8659C34.9533 33.9859 35.8733 35.5059 35.8866 37.1459C35.8866 38.7992 34.9533 40.3192 33.2733 41.4525C31.4066 42.7059 28.9533 43.3325 26.4999 43.3325C24.0466 43.3325 21.5933 42.7059 19.7266 41.4525C18.0466 40.3325 17.1133 38.8125 17.1133 37.1725C17.1133 35.5325 18.0466 33.9992 19.7399 32.8659ZM41.1535 23.7861C41.3668 26.3728 39.5268 28.6395 36.9801 28.9461H36.9535H36.9135C36.8335 28.9461 36.7535 28.9461 36.6868 28.9728C35.3935 29.0395 34.2068 28.6261 33.3135 27.8661C34.6868 26.6395 35.4735 24.7995 35.3135 22.7995C35.2201 21.7195 34.8468 20.7328 34.2868 19.8928C34.7935 19.6395 35.3801 19.4795 35.9801 19.4261C38.5935 19.1995 40.9268 21.1461 41.1535 23.7861ZM41.5 39.2932C42.8867 38.5332 43.7133 37.4132 43.82 36.1199C43.94 34.8399 43.3133 33.5999 42.0867 32.6132C39.8067 30.7732 36.1 30.1999 33.1533 31.0532C34.2867 31.4665 35.3267 32.0265 36.22 32.7332C37.7933 33.9999 38.58 35.5865 38.4467 37.2399C38.34 38.3865 37.78 39.4665 36.82 40.3332C38.4867 40.3732 40.1667 40.0265 41.5 39.2932Z" fill="url(#paint1_linear_415_6283)"/>
<defs>
<linearGradient id="paint0_linear_415_6283" x1="30.5" y1="0" x2="30.5" y2="60" gradientUnits="userSpaceOnUse">
<stop stop-color="#34C796"/>
<stop offset="1" stop-color="#0B7A55"/>
</linearGradient>
<linearGradient id="paint1_linear_415_6283" x1="30.4739" y1="16.666" x2="30.4739" y2="43.3325" gradientUnits="userSpaceOnUse">
<stop stop-color="#34C796"/>
<stop offset="1" stop-color="#0B7A55"/>
</linearGradient>
</defs>
</svg>
